X:121
T:Holly and the Ivy
M:6/8
R:
K:G
G2 A | BAG DGF | G3 G2 d | d2 B GAB | A3 -A2d | 
d2 B BAB | ccc cdc | BAG AGF | G3 | 

